src/SFA.DAS.ApprenticeAan.Web/wwwroot/img/sprite.svg

<?xml version="1.0" encoding="utf-8"?>
<svg xmlns="http://www.w3.org/2000/svg">
    <defs>
        <symbol id="icon-calendar" viewBox="0 0 50 58" fill="none" xmlns="http://www.w3.org/2000/svg" class="app-icon-list__icon">
            <path d="M14.2857 0C16.2612 0 17.8571 1.59598 17.8571 3.57143V7.14286H32.1429V3.57143C32.1429 1.59598 33.7388 0 35.7143 0C37.6897 0 39.2857 1.59598 39.2857 3.57143V7.14286H44.6429C47.6004 7.14286 50 9.54241 50 12.5V17.8571H0V12.5C0 9.54241 2.39955 7.14286 5.35714 7.14286H10.7143V3.57143C10.7143 1.59598 12.3103 0 14.2857 0ZM0 21.4286H50V51.7857C50 54.7433 47.6004 57.1429 44.6429 57.1429H5.35714C2.39955 57.1429 0 54.7433 0 51.7857V21.4286ZM7.14286 30.3571V33.9286C7.14286 34.9107 7.94643 35.7143 8.92857 35.7143H12.5C13.4821 35.7143 14.2857 34.9107 14.2857 33.9286V30.3571C14.2857 29.375 13.4821 28.5714 12.5 28.5714H8.92857C7.94643 28.5714 7.14286 29.375 7.14286 30.3571ZM21.4286 30.3571V33.9286C21.4286 34.9107 22.2321 35.7143 23.2143 35.7143H26.7857C27.7679 35.7143 28.5714 34.9107 28.5714 33.9286V30.3571C28.5714 29.375 27.7679 28.5714 26.7857 28.5714H23.2143C22.2321 28.5714 21.4286 29.375 21.4286 30.3571ZM37.5 28.5714C36.5179 28.5714 35.7143 29.375 35.7143 30.3571V33.9286C35.7143 34.9107 36.5179 35.7143 37.5 35.7143H41.0714C42.0536 35.7143 42.8571 34.9107 42.8571 33.9286V30.3571C42.8571 29.375 42.0536 28.5714 41.0714 28.5714H37.5ZM7.14286 44.6429V48.2143C7.14286 49.1964 7.94643 50 8.92857 50H12.5C13.4821 50 14.2857 49.1964 14.2857 48.2143V44.6429C14.2857 43.6607 13.4821 42.8571 12.5 42.8571H8.92857C7.94643 42.8571 7.14286 43.6607 7.14286 44.6429ZM23.2143 42.8571C22.2321 42.8571 21.4286 43.6607 21.4286 44.6429V48.2143C21.4286 49.1964 22.2321 50 23.2143 50H26.7857C27.7679 50 28.5714 49.1964 28.5714 48.2143V44.6429C28.5714 43.6607 27.7679 42.8571 26.7857 42.8571H23.2143ZM35.7143 44.6429V48.2143C35.7143 49.1964 36.5179 50 37.5 50H41.0714C42.0536 50 42.8571 49.1964 42.8571 48.2143V44.6429C42.8571 43.6607 42.0536 42.8571 41.0714 42.8571H37.5C36.5179 42.8571 35.7143 43.6607 35.7143 44.6429Z" fill="currentColor"/>
        </symbol>
        <symbol id="icon-handshake" viewBox="0 0 50 40" fill="none" xmlns="http://www.w3.org/2000/svg" class="app-icon-list__icon">
            <path d="M25.2656 6.65625L17.7031 12.7813C16.4453 13.7969 16.2031 15.625 17.1562 16.9297C18.1641 18.3203 20.125 18.5938 21.4766 17.5391L29.2344 11.5078C29.7812 11.0859 30.5625 11.1797 30.9922 11.7266C31.4219 12.2734 31.3203 13.0547 30.7734 13.4844L29.1406 14.75L40 24.75V10H39.9453L39.6406 9.80469L33.9688 6.17188C32.7734 5.40625 31.375 5 29.9531 5C28.25 5 26.5938 5.58594 25.2656 6.65625ZM27.0469 16.375L23.0078 19.5156C20.5469 21.4375 16.9766 20.9375 15.1328 18.4063C13.3984 16.0234 13.8359 12.6953 16.125 10.8438L22.625 5.58594C21.7188 5.20313 20.7422 5.00781 19.75 5.00781C18.2812 5 16.8516 5.4375 15.625 6.25L10 10V27.5H12.2031L19.3438 34.0156C20.875 35.4141 23.2422 35.3047 24.6406 33.7734C25.0703 33.2969 25.3594 32.7422 25.5078 32.1641L26.8359 33.3828C28.3594 34.7813 30.7344 34.6797 32.1328 33.1563C32.4844 32.7734 32.7422 32.3281 32.9062 31.8672C34.4219 32.8828 36.4844 32.6719 37.7578 31.2813C39.1562 29.7578 39.0547 27.3828 37.5312 25.9844L27.0469 16.375ZM1.25 10C0.5625 10 0 10.5625 0 11.25V27.5C0 28.8828 1.11719 30 2.5 30H5C6.38281 30 7.5 28.8828 7.5 27.5V10H1.25ZM3.75 25C4.08152 25 4.39946 25.1317 4.63388 25.3661C4.8683 25.6005 5 25.9185 5 26.25C5 26.5815 4.8683 26.8995 4.63388 27.1339C4.39946 27.3683 4.08152 27.5 3.75 27.5C3.41848 27.5 3.10054 27.3683 2.86612 27.1339C2.6317 26.8995 2.5 26.5815 2.5 26.25C2.5 25.9185 2.6317 25.6005 2.86612 25.3661C3.10054 25.1317 3.41848 25 3.75 25ZM42.5 10V27.5C42.5 28.8828 43.6172 30 45 30H47.5C48.8828 30 50 28.8828 50 27.5V11.25C50 10.5625 49.4375 10 48.75 10H42.5ZM45 26.25C45 25.9185 45.1317 25.6005 45.3661 25.3661C45.6005 25.1317 45.9185 25 46.25 25C46.5815 25 46.8995 25.1317 47.1339 25.3661C47.3683 25.6005 47.5 25.9185 47.5 26.25C47.5 26.5815 47.3683 26.8995 47.1339 27.1339C46.8995 27.3683 46.5815 27.5 46.25 27.5C45.9185 27.5 45.6005 27.3683 45.3661 27.1339C45.1317 26.8995 45 26.5815 45 26.25Z" fill="currentColor"/>
        </symbol>
        <symbol id="icon-settings" viewBox="0 0 50 50" fill="none" xmlns="http://www.w3.org/2000/svg" class="app-icon-list__icon">
            <path d="M48.4275 16.2695C48.74 17.1191 48.4763 18.0664 47.8025 18.6719L43.574 22.5195C43.6814 23.3301 43.74 24.1602 43.74 25C43.74 25.8398 43.6814 26.6699 43.574 27.4805L47.8025 31.3281C48.4763 31.9336 48.74 32.8809 48.4275 33.7305C47.9978 34.8926 47.4802 36.0059 46.8845 37.0801L46.4256 37.8711C45.781 38.9453 45.0584 39.9609 44.2674 40.918C43.6912 41.6211 42.7342 41.8555 41.8748 41.582L36.4353 39.8535C35.1267 40.8594 33.6814 41.6992 32.1385 42.334L30.9177 47.9102C30.7224 48.7988 30.0388 49.502 29.1404 49.6484C27.7927 49.873 26.406 49.9902 24.99 49.9902C23.574 49.9902 22.1873 49.873 20.8396 49.6484C19.9412 49.502 19.2576 48.7988 19.0623 47.9102L17.8416 42.334C16.2986 41.6992 14.8533 40.8594 13.5447 39.8535L8.11501 41.5918C7.25564 41.8652 6.29861 41.6211 5.72244 40.9277C4.93142 39.9707 4.20877 38.9551 3.56423 37.8809L3.10525 37.0898C2.50955 36.0156 1.99197 34.9023 1.56228 33.7402C1.24978 32.8906 1.51345 31.9434 2.18728 31.3379L6.4158 27.4902C6.30837 26.6699 6.24978 25.8398 6.24978 25C6.24978 24.1602 6.30837 23.3301 6.4158 22.5195L2.18728 18.6719C1.51345 18.0664 1.24978 17.1191 1.56228 16.2695C1.99197 15.1074 2.50955 13.9941 3.10525 12.9199L3.56423 12.1289C4.20877 11.0547 4.93142 10.0391 5.72244 9.08203C6.29861 8.37891 7.25564 8.14453 8.11501 8.41797L13.5545 10.1465C14.8631 9.14062 16.3084 8.30078 17.8513 7.66602L19.072 2.08984C19.2674 1.20117 19.951 0.498047 20.8494 0.351562C22.197 0.117187 23.5838 0 24.9998 0C26.4158 0 27.8025 0.117188 29.1502 0.341797C30.0486 0.488281 30.7322 1.19141 30.9275 2.08008L32.1482 7.65625C33.6912 8.29102 35.1365 9.13086 36.4451 10.1367L41.8845 8.4082C42.7439 8.13477 43.701 8.37891 44.2771 9.07227C45.0681 10.0293 45.7908 11.0449 46.4353 12.1191L46.8943 12.9102C47.49 13.9844 48.0076 15.0977 48.4373 16.2598L48.4275 16.2695ZM24.9998 32.8125C27.0718 32.8125 29.0589 31.9894 30.5241 30.5243C31.9892 29.0591 32.8123 27.072 32.8123 25C32.8123 22.928 31.9892 20.9409 30.5241 19.4757C29.0589 18.0106 27.0718 17.1875 24.9998 17.1875C22.9278 17.1875 20.9406 18.0106 19.4755 19.4757C18.0104 20.9409 17.1873 22.928 17.1873 25C17.1873 27.072 18.0104 29.0591 19.4755 30.5243C20.9406 31.9894 22.9278 32.8125 24.9998 32.8125Z" fill="currentColor"/>
        </symbol>
        <symbol id="message-lines" viewBox="0 0 50 50" fill="none" xmlns="http://www.w3.org/2000/svg" class="app-icon-list__icon">
          <path d="M0 6.25C0 2.80273 2.80273 0 6.25 0H43.75C47.1973 0 50 2.80273 50 6.25V34.375C50 37.8223 47.1973 40.625 43.75 40.625H30.2051L18.125 49.6875C17.6562 50.0391 17.0215 50.0977 16.4844 49.834C15.9473 49.5703 15.625 49.0332 15.625 48.4375V40.625H6.25C2.80273 40.625 0 37.8223 0 34.375V6.25ZM14.8438 14.0625C13.5449 14.0625 12.5 15.1074 12.5 16.4063C12.5 17.7051 13.5449 18.75 14.8438 18.75H35.1562C36.4551 18.75 37.5 17.7051 37.5 16.4063C37.5 15.1074 36.4551 14.0625 35.1562 14.0625H14.8438ZM14.8438 23.4375C13.5449 23.4375 12.5 24.4824 12.5 25.7813C12.5 27.0801 13.5449 28.125 14.8438 28.125H25.7812C27.0801 28.125 28.125 27.0801 28.125 25.7813C28.125 24.4824 27.0801 23.4375 25.7812 23.4375H14.8438Z" fill="currentColor"/>
        </symbol>
    </defs>
</svg>

<?xml version="1.0" encoding="utf-8"?>
<svg xmlns="http://www.w3.org/2000/svg">
    <defs>
        <symbol id="icon-calendar" viewBox="0 0 50 58" fill="none" xmlns="http://www.w3.org/2000/svg" class="app-icon-list__icon">
            <path d="M14.2857 0C16.2612 0 17.8571 1.59598 17.8571 3.57143V7.14286H32.1429V3.57143C32.1429 1.59598 33.7388 0 35.7143 0C37.6897 0 39.2857 1.59598 39.2857 3.57143V7.14286H44.6429C47.6004 7.14286 50 9.54241 50 12.5V17.8571H0V12.5C0 9.54241 2.39955 7.14286 5.35714 7.14286H10.7143V3.57143C10.7143 1.59598 12.3103 0 14.2857 0ZM0 21.4286H50V51.7857C50 54.7433 47.6004 57.1429 44.6429 57.1429H5.35714C2.39955 57.1429 0 54.7433 0 51.7857V21.4286ZM7.14286 30.3571V33.9286C7.14286 34.9107 7.94643 35.7143 8.92857 35.7143H12.5C13.4821 35.7143 14.2857 34.9107 14.2857 33.9286V30.3571C14.2857 29.375 13.4821 28.5714 12.5 28.5714H8.92857C7.94643 28.5714 7.14286 29.375 7.14286 30.3571ZM21.4286 30.3571V33.9286C21.4286 34.9107 22.2321 35.7143 23.2143 35.7143H26.7857C27.7679 35.7143 28.5714 34.9107 28.5714 33.9286V30.3571C28.5714 29.375 27.7679 28.5714 26.7857 28.5714H23.2143C22.2321 28.5714 21.4286 29.375 21.4286 30.3571ZM37.5 28.5714C36.5179 28.5714 35.7143 29.375 35.7143 30.3571V33.9286C35.7143 34.9107 36.5179 35.7143 37.5 35.7143H41.0714C42.0536 35.7143 42.8571 34.9107 42.8571 33.9286V30.3571C42.8571 29.375 42.0536 28.5714 41.0714 28.5714H37.5ZM7.14286 44.6429V48.2143C7.14286 49.1964 7.94643 50 8.92857 50H12.5C13.4821 50 14.2857 49.1964 14.2857 48.2143V44.6429C14.2857 43.6607 13.4821 42.8571 12.5 42.8571H8.92857C7.94643 42.8571 7.14286 43.6607 7.14286 44.6429ZM23.2143 42.8571C22.2321 42.8571 21.4286 43.6607 21.4286 44.6429V48.2143C21.4286 49.1964 22.2321 50 23.2143 50H26.7857C27.7679 50 28.5714 49.1964 28.5714 48.2143V44.6429C28.5714 43.6607 27.7679 42.8571 26.7857 42.8571H23.2143ZM35.7143 44.6429V48.2143C35.7143 49.1964 36.5179 50 37.5 50H41.0714C42.0536 50 42.8571 49.1964 42.8571 48.2143V44.6429C42.8571 43.6607 42.0536 42.8571 41.0714 42.8571H37.5C36.5179 42.8571 35.7143 43.6607 35.7143 44.6429Z" fill="currentColor"/>
        </symbol>
        <symbol id="icon-handshake" viewBox="0 0 50 40" fill="none" xmlns="http://www.w3.org/2000/svg" class="app-icon-list__icon">
            <path d="M25.2656 6.65625L17.7031 12.7813C16.4453 13.7969 16.2031 15.625 17.1562 16.9297C18.1641 18.3203 20.125 18.5938 21.4766 17.5391L29.2344 11.5078C29.7812 11.0859 30.5625 11.1797 30.9922 11.7266C31.4219 12.2734 31.3203 13.0547 30.7734 13.4844L29.1406 14.75L40 24.75V10H39.9453L39.6406 9.80469L33.9688 6.17188C32.7734 5.40625 31.375 5 29.9531 5C28.25 5 26.5938 5.58594 25.2656 6.65625ZM27.0469 16.375L23.0078 19.5156C20.5469 21.4375 16.9766 20.9375 15.1328 18.4063C13.3984 16.0234 13.8359 12.6953 16.125 10.8438L22.625 5.58594C21.7188 5.20313 20.7422 5.00781 19.75 5.00781C18.2812 5 16.8516 5.4375 15.625 6.25L10 10V27.5H12.2031L19.3438 34.0156C20.875 35.4141 23.2422 35.3047 24.6406 33.7734C25.0703 33.2969 25.3594 32.7422 25.5078 32.1641L26.8359 33.3828C28.3594 34.7813 30.7344 34.6797 32.1328 33.1563C32.4844 32.7734 32.7422 32.3281 32.9062 31.8672C34.4219 32.8828 36.4844 32.6719 37.7578 31.2813C39.1562 29.7578 39.0547 27.3828 37.5312 25.9844L27.0469 16.375ZM1.25 10C0.5625 10 0 10.5625 0 11.25V27.5C0 28.8828 1.11719 30 2.5 30H5C6.38281 30 7.5 28.8828 7.5 27.5V10H1.25ZM3.75 25C4.08152 25 4.39946 25.1317 4.63388 25.3661C4.8683 25.6005 5 25.9185 5 26.25C5 26.5815 4.8683 26.8995 4.63388 27.1339C4.39946 27.3683 4.08152 27.5 3.75 27.5C3.41848 27.5 3.10054 27.3683 2.86612 27.1339C2.6317 26.8995 2.5 26.5815 2.5 26.25C2.5 25.9185 2.6317 25.6005 2.86612 25.3661C3.10054 25.1317 3.41848 25 3.75 25ZM42.5 10V27.5C42.5 28.8828 43.6172 30 45 30H47.5C48.8828 30 50 28.8828 50 27.5V11.25C50 10.5625 49.4375 10 48.75 10H42.5ZM45 26.25C45 25.9185 45.1317 25.6005 45.3661 25.3661C45.6005 25.1317 45.9185 25 46.25 25C46.5815 25 46.8995 25.1317 47.1339 25.3661C47.3683 25.6005 47.5 25.9185 47.5 26.25C47.5 26.5815 47.3683 26.8995 47.1339 27.1339C46.8995 27.3683 46.5815 27.5 46.25 27.5C45.9185 27.5 45.6005 27.3683 45.3661 27.1339C45.1317 26.8995 45 26.5815 45 26.25Z" fill="currentColor"/>
        </symbol>
        <symbol id="icon-settings" viewBox="0 0 50 50" fill="none" xmlns="http://www.w3.org/2000/svg" class="app-icon-list__icon">
            <path d="M48.4275 16.2695C48.74 17.1191 48.4763 18.0664 47.8025 18.6719L43.574 22.5195C43.6814 23.3301 43.74 24.1602 43.74 25C43.74 25.8398 43.6814 26.6699 43.574 27.4805L47.8025 31.3281C48.4763 31.9336 48.74 32.8809 48.4275 33.7305C47.9978 34.8926 47.4802 36.0059 46.8845 37.0801L46.4256 37.8711C45.781 38.9453 45.0584 39.9609 44.2674 40.918C43.6912 41.6211 42.7342 41.8555 41.8748 41.582L36.4353 39.8535C35.1267 40.8594 33.6814 41.6992 32.1385 42.334L30.9177 47.9102C30.7224 48.7988 30.0388 49.502 29.1404 49.6484C27.7927 49.873 26.406 49.9902 24.99 49.9902C23.574 49.9902 22.1873 49.873 20.8396 49.6484C19.9412 49.502 19.2576 48.7988 19.0623 47.9102L17.8416 42.334C16.2986 41.6992 14.8533 40.8594 13.5447 39.8535L8.11501 41.5918C7.25564 41.8652 6.29861 41.6211 5.72244 40.9277C4.93142 39.9707 4.20877 38.9551 3.56423 37.8809L3.10525 37.0898C2.50955 36.0156 1.99197 34.9023 1.56228 33.7402C1.24978 32.8906 1.51345 31.9434 2.18728 31.3379L6.4158 27.4902C6.30837 26.6699 6.24978 25.8398 6.24978 25C6.24978 24.1602 6.30837 23.3301 6.4158 22.5195L2.18728 18.6719C1.51345 18.0664 1.24978 17.1191 1.56228 16.2695C1.99197 15.1074 2.50955 13.9941 3.10525 12.9199L3.56423 12.1289C4.20877 11.0547 4.93142 10.0391 5.72244 9.08203C6.29861 8.37891 7.25564 8.14453 8.11501 8.41797L13.5545 10.1465C14.8631 9.14062 16.3084 8.30078 17.8513 7.66602L19.072 2.08984C19.2674 1.20117 19.951 0.498047 20.8494 0.351562C22.197 0.117187 23.5838 0 24.9998 0C26.4158 0 27.8025 0.117188 29.1502 0.341797C30.0486 0.488281 30.7322 1.19141 30.9275 2.08008L32.1482 7.65625C33.6912 8.29102 35.1365 9.13086 36.4451 10.1367L41.8845 8.4082C42.7439 8.13477 43.701 8.37891 44.2771 9.07227C45.0681 10.0293 45.7908 11.0449 46.4353 12.1191L46.8943 12.9102C47.49 13.9844 48.0076 15.0977 48.4373 16.2598L48.4275 16.2695ZM24.9998 32.8125C27.0718 32.8125 29.0589 31.9894 30.5241 30.5243C31.9892 29.0591 32.8123 27.072 32.8123 25C32.8123 22.928 31.9892 20.9409 30.5241 19.4757C29.0589 18.0106 27.0718 17.1875 24.9998 17.1875C22.9278 17.1875 20.9406 18.0106 19.4755 19.4757C18.0104 20.9409 17.1873 22.928 17.1873 25C17.1873 27.072 18.0104 29.0591 19.4755 30.5243C20.9406 31.9894 22.9278 32.8125 24.9998 32.8125Z" fill="currentColor"/>
        </symbol>
        <symbol id="message-lines" viewBox="0 0 50 50" fill="none" xmlns="http://www.w3.org/2000/svg" class="app-icon-list__icon">
            <path d="M0,6.2C0,2.8,2.8,0,6.2,0h37.5C47.2,0,50,2.8,50,6.2v28.1c0,3.4-2.8,6.2-6.2,6.2H30.2l-12.1,9.1
                    c-0.5,0.4-1.1,0.4-1.6,0.1s-0.9-0.8-0.9-1.4v-7.8H6.2c-3.4,0-6.2-2.8-6.2-6.2V6.2z M14.8,14.1c-1.3,0-2.3,1-2.3,2.3
                    c0,1.3,1,2.3,2.3,2.3h20.3c1.3,0,2.3-1,2.3-2.3c0-1.3-1-2.3-2.3-2.3H14.8z M14.8,23.4c-1.3,0-2.3,1-2.3,2.3c0,1.3,1,2.3,2.3,2.3
                    h10.9c1.3,0,2.3-1,2.3-2.3c0-1.3-1-2.3-2.3-2.3H14.8z" fill="currentColor"/>        
        </symbol>
    </defs>
</svg>
